src/assets/icons/sort-numeric-up.svg

<svg width="14" height="14" viewBox="0 0 14 14" fill="none" xmlns="http://www.w3.org/2000/svg">
<g id="sort-numeric-up">
<g clip-path="url(#clip0_156_4668)">
<path id="Vector" fill-rule="evenodd" clip-rule="evenodd" d="M3.3597 0.198411C3.42465 0.133463 3.49951 0.0844595 3.57941 0.0514016C3.65803 0.0187984 3.74412 0.000575501 3.83441 1.34028e-05L3.83871 0L3.84302 1.34025e-05C4.01495 0.00109963 4.18654 0.0672323 4.31772 0.198411L6.57578 2.45648C6.84033 2.72102 6.84033 3.14994 6.57578 3.41449C6.31124 3.67904 5.88232 3.67904 5.61777 3.41449L4.51613 2.31285V13.3226C4.51613 13.6967 4.21284 14 3.83871 14C3.46458 14 3.16129 13.6967 3.16129 13.3226V2.31285L2.05966 3.41449C1.79511 3.67904 1.36619 3.67904 1.10164 3.41449C0.837092 3.14994 0.837092 2.72102 1.10164 2.45648L3.3597 0.198411ZM10.8387 5.64526V1.97878L10.491 2.17251C10.1642 2.35461 9.75162 2.23728 9.56952 1.91045C9.38743 1.58363 9.50476 1.17107 9.83159 0.988975L10.4223 0.659866C10.7914 0.394138 11.2442 0.397466 11.5936 0.590047C11.9537 0.788521 12.1936 1.17645 12.1936 1.62589V5.64526C12.1936 6.01939 11.8903 6.32268 11.5161 6.32268C11.142 6.32268 10.8387 6.01939 10.8387 5.64526ZM11.0645 9.03226C10.6904 9.03226 10.3871 9.33555 10.3871 9.70968C10.3871 10.0838 10.6904 10.3871 11.0645 10.3871C11.4386 10.3871 11.7419 10.0838 11.7419 9.70968C11.7419 9.33555 11.4386 9.03226 11.0645 9.03226ZM11.5318 11.6879C11.3254 11.9898 10.9765 12.1935 10.5949 12.1935H10.1613C9.78716 12.1935 9.48387 12.4968 9.48387 12.871C9.48387 13.2451 9.78716 13.5484 10.1613 13.5484H10.5949C11.8994 13.5484 13.012 12.5032 13.0777 11.193C13.0968 10.8926 13.0968 10.551 13.0968 10.1786V10.1613V9.70968C13.0968 8.58729 12.1869 7.67742 11.0645 7.67742C9.94213 7.67742 9.03226 8.58729 9.03226 9.70968C9.03226 10.8321 9.94213 11.7419 11.0645 11.7419C11.2253 11.7419 11.3818 11.7233 11.5318 11.6879Z" fill="black"/>
</g>
</g>
<defs>
<clipPath id="clip0_156_4668">
<rect width="14" height="14" fill="white"/>
</clipPath>
</defs>
</svg>

<svg xmlns="http://www.w3.org/2000/svg" fill="none" viewBox="0 0 14 14"><g clip-path="url(#a)"><path fill="#000" fill-rule="evenodd" d="M3.36.198A.68.68 0 0 1 3.834 0h.009a.68.68 0 0 1 .475.198l2.258 2.258a.677.677 0 1 1-.958.958L4.516 2.313v11.01a.677.677 0 0 1-1.355 0V2.313L2.06 3.414a.677.677 0 0 1-.958-.958zm7.479 5.447V1.98l-.348.194a.677.677 0 1 1-.66-1.184l.591-.33A1.09 1.09 0 0 1 11.594.59c.36.199.6.586.6 1.036v4.02a.677.677 0 0 1-1.355 0m.226 3.387a.677.677 0 1 0 0 1.355.677.677 0 0 0 0-1.355m.467 2.656a1.15 1.15 0 0 1-.937.505h-.434a.677.677 0 0 0 0 1.355h.434c1.304 0 2.417-1.045 2.483-2.355.019-.3.019-.642.019-1.014V9.71a2.032 2.032 0 1 0-1.565 1.978" clip-rule="evenodd"/></g><defs><clipPath id="a"><path fill="#fff" d="M0 0h14v14H0z"/></clipPath></defs></svg>
